icons/svg/sport/tanning_salon.svg

<?xml version="1.0" encoding="UTF-8" standalone="no"?>
<!-- Created with Inkscape (http://www.inkscape.org/) -->

<svg
   xmlns:dc="http://purl.org/dc/elements/1.1/"
   xmlns:cc="http://creativecommons.org/ns#"
   xmlns:rdf="http://www.w3.org/1999/02/22-rdf-syntax-ns#"
   xmlns:svg="http://www.w3.org/2000/svg"
   xmlns="http://www.w3.org/2000/svg"
   xmlns:sodipodi="http://sodipodi.sourceforge.net/DTD/sodipodi-0.dtd"
   xmlns:inkscape="http://www.inkscape.org/namespaces/inkscape"
   version="1.0"
   width="580"
   height="580"
   id="svg2"
   sodipodi:version="0.32"
   inkscape:version="0.91 r"
   sodipodi:docname="solarium.svg"
   inkscape:output_extension="org.inkscape.output.svg.inkscape">
  <metadata
     id="metadata2975">
    <rdf:RDF>
      <cc:Work
         rdf:about="">
        <dc:format>image/svg+xml</dc:format>
        <dc:type
           rdf:resource="http://purl.org/dc/dcmitype/StillImage" />
        <cc:license
           rdf:resource="http://web.resource.org/cc/PublicDomain" />
        <dc:language>en</dc:language>
      </cc:Work>
    </rdf:RDF>
  </metadata>
  <sodipodi:namedview
     inkscape:window-height="1006"
     inkscape:window-width="1920"
     inkscape:pageshadow="2"
     inkscape:pageopacity="0.0"
     guidetolerance="10.0"
     gridtolerance="10.0"
     objecttolerance="10.0"
     borderopacity="1.0"
     bordercolor="#666666"
     pagecolor="#ffffff"
     id="base"
     inkscape:zoom="0.11520964"
     inkscape:cx="653.12614"
     inkscape:cy="1399.8014"
     inkscape:window-x="1680"
     inkscape:window-y="0"
     inkscape:current-layer="svg2"
     showgrid="false"
     inkscape:window-maximized="1"
     inkscape:object-paths="true"
     inkscape:snap-intersection-paths="true"
     inkscape:snap-smooth-nodes="true"
     inkscape:object-nodes="true"
     inkscape:snap-center="true"
     inkscape:snap-global="false" />
  <defs
     id="defs4">
    <inkscape:perspective
       sodipodi:type="inkscape:persp3d"
       inkscape:vp_x="0 : 290 : 1"
       inkscape:vp_y="0 : 1000 : 0"
       inkscape:vp_z="580 : 290 : 1"
       inkscape:persp3d-origin="290 : 193.33333 : 1"
       id="perspective2441" />
    <inkscape:perspective
       id="perspective3452"
       inkscape:persp3d-origin="30 : 20 : 1"
       inkscape:vp_z="60 : 30 : 1"
       inkscape:vp_y="0 : 1000 : 0"
       inkscape:vp_x="0 : 30 : 1"
       sodipodi:type="inkscape:persp3d" />
    <symbol
       viewBox="244.5 110 489 219.9"
       id="symbol-university">
      <path
         id="path4460"
         d="M79,43l57,119c0,0,21-96,104-96s124,106,124,106l43-133l82-17L0,17L79,43z" />
      <path
         id="path4462"
         d="M94,176l-21,39"
         stroke-width="20"
         stroke="#000000"
         fill="none" />
      <path
         id="path4464"
         d="M300,19c0,10.5-22.6,19-50.5,19S199,29.5,199,19s22.6-19,50.5-19S300,8.5,300,19z" />
      <path
         id="path4466"
         d="M112,216l-16-38L64,88c0,0-9-8-4-35s16-24,16-24"
         stroke-width="20"
         stroke="#000000"
         ill="none" />
    </symbol>
    <inkscape:perspective
       id="perspective4471"
       inkscape:persp3d-origin="372.04724 : 350.78739 : 1"
       inkscape:vp_z="744.09448 : 526.18109 : 1"
       inkscape:vp_y="0 : 1000 : 0"
       inkscape:vp_x="0 : 526.18109 : 1"
       sodipodi:type="inkscape:persp3d" />
    <inkscape:perspective
       id="perspective4668"
       inkscape:persp3d-origin="6 : 4 : 1"
       inkscape:vp_z="12 : 6 : 1"
       inkscape:vp_y="0 : 1000 : 0"
       inkscape:vp_x="0 : 6 : 1"
       sodipodi:type="inkscape:persp3d" />
    <inkscape:perspective
       id="perspective4904"
       inkscape:persp3d-origin="16 : 10.666667 : 1"
       inkscape:vp_z="32 : 16 : 1"
       inkscape:vp_y="0 : 1000 : 0"
       inkscape:vp_x="0 : 16 : 1"
       sodipodi:type="inkscape:persp3d" />
  </defs>
  <g
     id="g1327">
    <path
       d="M 66.275,1.768 C 24.94,1.768 1.704,23.139 1.704,66.804 L 1.704,516.927 C 1.704,557.771 22.599,579.156 63.896,579.156 L 515.92,579.156 C 557.227,579.156 578.149,558.841 578.149,516.927 L 578.149,66.804 C 578.149,24.203 557.227,1.768 514.628,1.768 C 514.624,1.768 66.133,1.625 66.275,1.768 z "
       style="fill:#111;stroke:#eee;stroke-width:3.40799999"
       id="path1329" />
  </g>
  <path
     style="fill:#ffffff;fill-opacity:1;fill-rule:evenodd;stroke:#ffffff;stroke-width:33.62202835;stroke-linecap:round;stroke-linejoin:round;stroke-miterlimit:4;stroke-dasharray:none;stroke-opacity:1"
     d="m 53.019073,279.24853 0,234.15342"
     id="path2157"
     inkscape:connector-curvature="0"
     sodipodi:nodetypes="cc" />
  <path
     style="fill:#ffffff;fill-opacity:1;fill-rule:evenodd;stroke:#ffffff;stroke-width:33.62202835;stroke-linecap:butt;stroke-linejoin:miter;stroke-miterlimit:4;stroke-dasharray:none;stroke-opacity:1"
     d="m 65.522024,433.84589 450.295046,0"
     id="path2159"
     inkscape:connector-curvature="0"
     sodipodi:nodetypes="cc" />
  <path
     style="fill:#ffffff;fill-opacity:1;fill-rule:evenodd;stroke:#ffffff;stroke-width:33.622;stroke-linecap:round;stroke-linejoin:miter;stroke-miterlimit:4;stroke-dasharray:none;stroke-opacity:1"
     d="m 530.32002,504.39603 0,-213.85912"
     id="path2161"
     inkscape:connector-curvature="0"
     sodipodi:nodetypes="cc" />
  <rect
     style="fill:#ffffff;fill-opacity:1;stroke:#ffffff;stroke-width:35.45034027;stroke-miterlimit:4;stroke-dasharray:none;stroke-opacity:1"
     id="rect2163"
     width="232.15274"
     height="24.428253"
     x="226.451"
     y="353.38596"
     ry="12.214127" />
  <ellipse
     style="fill:#ffffff;fill-opacity:1;stroke:#ffffff;stroke-width:49.7136116;stroke-miterlimit:4;stroke-dasharray:none;stroke-opacity:1"
     id="path2167"
     ry="20.73365"
     rx="21.694155"
     cy="352.65805"
     cx="133.49359" />
  <path
     inkscape:connector-curvature="0"
     d="m 373.34114,128.27148 16.66821,-5.83387 -16.66821,-5.83392 C 352.50586,109.93636 343.33833,85.767403 352.50586,66.598941 l 7.50068,-15.001403 -15.0014,7.500691 c -19.16846,10.000943 -43.33738,0 -50.00467,-20.835279 L 290,22.428129 284.16613,39.096363 c -6.66731,20.835273 -30.83622,30.002809 -50.00468,20.835273 l -15.0014,-8.334098 7.50071,15.001403 c 10.00092,19.168462 0,43.337419 -20.8353,50.004749 l -15.83482,5.83392 16.66824,5.83387 c 20.83527,6.66729 30.00279,30.83622 20.83527,50.00468 l -7.5007,15.00139 15.00142,-7.50068 c 19.16844,-10.00094 43.33739,0 50.00467,20.83527 l 5.83389,16.66823 5.83388,-16.66823 c 6.66728,-20.83527 30.83621,-30.00281 50.00467,-20.83527 l 15.00141,7.50068 -7.50071,-15.00139 c -10.83434,-20.00187 -0.83342,-43.33739 19.16847,-50.00468 z M 290,172.44228 c -27.50257,0 -50.00467,-22.50211 -50.00467,-50.00467 0,-27.502699 22.5021,-50.004799 50.00467,-50.004799 27.50258,0 50.0047,22.5021 50.0047,50.004799 0,27.50256 -22.50212,50.00467 -50.0047,50.00467 z"
     id="path4"
     style="fill:#ffffff;fill-opacity:1;stroke:none" />
  <path
     style="color:#000000;font-style:normal;font-variant:normal;font-weight:normal;font-stretch:normal;font-size:medium;line-height:normal;font-family:sans-serif;text-indent:0;text-align:start;text-decoration:none;text-decoration-line:none;text-decoration-style:solid;text-decoration-color:#000000;letter-spacing:normal;word-spacing:normal;text-transform:none;direction:ltr;block-progression:tb;writing-mode:lr-tb;baseline-shift:baseline;text-anchor:start;white-space:normal;clip-rule:nonzero;display:inline;overflow:visible;visibility:visible;opacity:1;isolation:auto;mix-blend-mode:normal;color-interpolation:sRGB;color-interpolation-filters:linearRGB;solid-color:#000000;solid-opacity:1;fill:#ffffff;fill-opacity:1;fill-rule:evenodd;stroke:none;stroke-width:20;stroke-linecap:butt;stroke-linejoin:miter;stroke-miterlimit:4;stroke-dasharray:none;stroke-dashoffset:0;stroke-opacity:1;color-rendering:auto;image-rendering:auto;shape-rendering:auto;text-rendering:auto;enable-background:accumulate"
     d="m 280.00015,242.26955 0,53.39648 c 0.88662,5.41659 6.66255,7.61766 10,7.68798 3.33604,-0.0216 8.97634,-2.8519 10,-7.54149 l 0,-53.52735 c -1.43015,-4.84131 -6.66138,-7.26827 -10,-7.24609 -3.33884,-0.0274 -8.26441,2.82565 -10,7.23047 z"
     id="path4187"
     inkscape:connector-curvature="0"
     sodipodi:nodetypes="ccccccc" />
  <path
     style="color:#000000;font-style:normal;font-variant:normal;font-weight:normal;font-stretch:normal;font-size:medium;line-height:normal;font-family:sans-serif;text-indent:0;text-align:start;text-decoration:none;text-decoration-line:none;text-decoration-style:solid;text-decoration-color:#000000;letter-spacing:normal;word-spacing:normal;text-transform:none;direction:ltr;block-progression:tb;writing-mode:lr-tb;baseline-shift:baseline;text-anchor:start;white-space:normal;clip-rule:nonzero;display:inline;overflow:visible;visibility:visible;opacity:1;isolation:auto;mix-blend-mode:normal;color-interpolation:sRGB;color-interpolation-filters:linearRGB;solid-color:#000000;solid-opacity:1;fill:#ffffff;fill-opacity:1;fill-rule:evenodd;stroke:none;stroke-width:20;stroke-linecap:butt;stroke-linejoin:miter;stroke-miterlimit:4;stroke-dasharray:none;stroke-dashoffset:0;stroke-opacity:1;color-rendering:auto;image-rendering:auto;shape-rendering:auto;text-rendering:auto;enable-background:accumulate"
     d="m 221.65639,221.23018 -26.72091,46.28196 c -0.20905,11.12518 3.44959,17.20609 17.29983,10.0343 l 26.68223,-46.21498 c -0.95042,-12.82202 -7.68948,-14.96805 -17.26115,-10.10128 z"
     id="path4157"
     inkscape:connector-curvature="0"
     inkscape:transform-center-x="73.07349"
     inkscape:transform-center-y="126.534"
     sodipodi:nodetypes="ccccc" />
  <path
     style="color:#000000;font-style:normal;font-variant:normal;font-weight:normal;font-stretch:normal;font-size:medium;line-height:normal;font-family:sans-serif;text-indent:0;text-align:start;text-decoration:none;text-decoration-line:none;text-decoration-style:solid;text-decoration-color:#000000;letter-spacing:normal;word-spacing:normal;text-transform:none;direction:ltr;block-progression:tb;writing-mode:lr-tb;baseline-shift:baseline;text-anchor:start;white-space:normal;clip-rule:nonzero;display:inline;overflow:visible;visibility:visible;opacity:1;isolation:auto;mix-blend-mode:normal;color-interpolation:sRGB;color-interpolation-filters:linearRGB;solid-color:#000000;solid-opacity:1;fill:#ffffff;fill-opacity:1;fill-rule:evenodd;stroke:none;stroke-width:20;stroke-linecap:butt;stroke-linejoin:miter;stroke-miterlimit:4;stroke-dasharray:none;stroke-dashoffset:0;stroke-opacity:1;color-rendering:auto;image-rendering:auto;shape-rendering:auto;text-rendering:auto;enable-background:accumulate"
     d="m 358.40191,221.33072 c -11.43859,-5.38938 -16.63235,-1.12135 -17.37717,9.90036 l 26.7209,46.28195 c 9.42345,3.71184 16.44254,2.76689 17.3385,-9.96732 z"
     id="path4159"
     inkscape:connector-curvature="0"
     inkscape:transform-center-x="-73.054445"
     inkscape:transform-center-y="126.56757"
     sodipodi:nodetypes="ccccc" />
</svg>

<svg width="580" height="580" viewBox="0 0 580 580" fill="none" xmlns="http://www.w3.org/2000/svg">
<g clip-path="url(#clip0)">
<path d="M66.2751 1.76815C24.9401 1.76815 1.7041 23.1391 1.7041 66.8041V516.927C1.7041 557.771 22.5991 579.156 63.8961 579.156H515.92C557.227 579.156 578.149 558.841 578.149 516.927V66.8041C578.149 24.2031 557.227 1.76815 514.628 1.76815C514.624 1.76815 66.1331 1.62515 66.2751 1.76815Z" fill="#111111" stroke="#EEEEEE" stroke-width="3.408"/>
<path fill-rule="evenodd" clip-rule="evenodd" d="M53.019 279.248V513.401Z" fill="white"/>
<path d="M53.019 279.248V513.401" stroke="white" stroke-width="33.622" stroke-linecap="round" stroke-linejoin="round"/>
<path fill-rule="evenodd" clip-rule="evenodd" d="M65.522 433.846H515.817Z" fill="white"/>
<path d="M65.522 433.846H515.817" stroke="white" stroke-width="33.622"/>
<path fill-rule="evenodd" clip-rule="evenodd" d="M530.32 504.396V290.537Z" fill="white"/>
<path d="M530.32 504.396V290.537" stroke="white" stroke-width="33.622" stroke-linecap="round"/>
<path d="M446.39 353.386H238.665C231.92 353.386 226.451 358.854 226.451 365.6C226.451 372.346 231.92 377.814 238.665 377.814H446.39C453.135 377.814 458.604 372.346 458.604 365.6C458.604 358.854 453.135 353.386 446.39 353.386Z" fill="white" stroke="white" stroke-width="35.4503"/>
<path d="M133.493 373.392C145.475 373.392 155.188 364.109 155.188 352.658C155.188 341.208 145.475 331.925 133.493 331.925C121.512 331.925 111.799 341.208 111.799 352.658C111.799 364.109 121.512 373.392 133.493 373.392Z" fill="white" stroke="white" stroke-width="49.7136"/>
<path d="M373.341 128.272L390.009 122.438L373.341 116.604C352.506 109.936 343.338 85.7675 352.506 66.599L360.007 51.5976L345.005 59.0983C325.837 69.0993 301.668 59.0983 295.001 38.263L290 22.4282L284.166 39.0965C277.499 59.9317 253.33 69.0993 234.162 59.9317L219.16 51.5976L226.661 66.599C236.662 85.7675 226.661 109.936 205.826 116.604L189.991 122.438L206.659 128.272C227.494 134.939 236.662 159.108 227.494 178.276L219.994 193.278L234.995 185.777C254.163 175.776 278.332 185.777 285 206.612L290.834 223.28L296.667 206.612C303.335 185.777 327.504 176.609 346.672 185.777L361.673 193.278L354.173 178.276C343.338 158.274 353.339 134.939 373.341 128.272H373.341ZM290 172.442C262.498 172.442 239.995 149.94 239.995 122.438C239.995 94.935 262.498 72.4329 290 72.4329C317.503 72.4329 340.005 94.935 340.005 122.438C340.005 149.94 317.503 172.442 290 172.442Z" fill="white"/>
<path fill-rule="evenodd" clip-rule="evenodd" d="M280 242.27V295.666C280.887 301.083 286.663 303.284 290 303.354C293.336 303.333 298.976 300.502 300 295.813V242.285C298.57 237.444 293.339 235.017 290 235.039C286.661 235.012 281.736 237.865 280 242.27V242.27Z" fill="white"/>
<path fill-rule="evenodd" clip-rule="evenodd" d="M221.657 221.23L194.936 267.512C194.727 278.637 198.385 284.718 212.235 277.546L238.918 231.331C237.967 218.509 231.228 216.363 221.657 221.23V221.23Z" fill="white"/>
<path fill-rule="evenodd" clip-rule="evenodd" d="M358.402 221.331C346.963 215.942 341.77 220.21 341.025 231.231L367.746 277.513C377.169 281.225 384.188 280.28 385.084 267.546L358.402 221.331Z" fill="white"/>
</g>
<defs>
<clipPath id="clip0">
<path d="M0 0H580V580H0V0Z" fill="white"/>
</clipPath>
</defs>
</svg>
